!!!!SEGMENT: pl-cz--iii-594--001_rzepko-adolf--missa-kyrie.krn
!!!cenid: 18xx:1039
!!!COM: Rzepko, Adolf
!!!COM-rismID: pe30020315
!!!CDT: 1825-1892
!!!CNT: Polish
!!!OPR: Missa
!!!OTL: Kyrie
!!!OMV: 001
!!!PDT:
!!!AGN: Sacred; Mass
!!!SMS-siglum: PL-CZ
!!!SMS-shelfmark: III-594
!!!SMS-shelfwork: 001-001 M
!!!SMS-variant: Clarino 1mo in C: PL-CZ III-594:13, Clarino II in C.: PL-CZ III-594:15
!!!SMS-altvar: Klarino Imo in C: PL-CZ III-594:17, Clarino II in C: PL-CZ III-594:19
!!!NIFC-rismSourceID: 300001136
!!!NIFC-islandoraID:
!!!URL-pdf-islandora:
!!!URL-scan:
!!!ONB-nifc: UWAGA: części Mszy: Kyrie, Gloria, Credo, Sanctus, Benedictus, Agnus
!!!AIN: 1 clars 1 flt 1 organ 1 soprn 2 tromp 3 violn
!!!key: C
**kern	**fba	**dynam	**kern	**dynam	**kern	**dynam	**kern	**dynam	**kern	**text	**dynam	**kern	**kern	**kern	**dynam	**kern	**dynam
*	*	*	*group3	*	*group3	*	*group3	*	*	*	*	*group2	*group2	*group1	*	*group1	*
*part9	*part9	*part9	*part8	*part8	*part7	*part7	*part6	*part6	*part5	*part5	*part5	*part4	*part3	*part2	*part2	*part1	*part1
*staff9	*	*	*staff8	*	*staff7	*	*staff6	*	*staff5	*staff5	*	*staff4	*staff3	*staff2	*	*staff1	*
*I"Organo	*	*	*I"Violino in F	*	*I"Violino 2do	*	*I"Violino 1°	*	*I"Sopran._	*	*	*I"Clarino II in C.	*I"Clarino 1mo in C	*I"Clarinetto in C.	*	*I"Flauto	*
*I'org	*	*	*I'vl in F	*	*I'vl 2	*	*I'vl 1	*	*I'S	*	*	*I'clno 2 in C	*I'clno 1 in C	*I'cl in C	*	*I'fl	*
*Iorgan	*	*	*Ivioln	*	*Ivioln	*	*Ivioln	*	*Isoprn	*	*	*Itromp	*Itromp	*Iclars	*	*Iflt	*
*ICklav	*	*	*ICstr	*	*ICstr	*	*ICstr	*	*ICvox	*	*	*ICbras	*ICbras	*ICww	*	*ICww	*
*IGcont	*	*	*	*	*	*	*	*	*IGsolo	*	*	*	*	*	*	*	*
*clefF4	*	*	*clefG2	*	*clefG2	*	*clefG2	*	*clefC1	*	*	*	*	*clefG2	*	*clefG2	*
*	*	*	*ITrd4c7	*	*	*	*	*	*	*	*	*	*	*	*	*	*
*k[]	*	*	*k[]	*	*k[]	*	*k[]	*	*k[]	*	*	*	*	*k[]	*	*k[]	*
*C:	*	*	*C:	*	*C:	*	*C:	*	*C:	*	*	*	*	*C:	*	*C:	*
*M4/4	*	*	*M4/4	*	*M4/4	*	*M4/4	*	*M4/4	*	*	*	*	*M4/4	*	*M4/4	*
*met(c)	*	*	*met(c)	*	*met(c)	*	*met(c)	*	*met(c)	*	*	*	*	*met(c)	*	*met(c)	*
*all\right	*	*	*all\right	*	*all\right	*	*all\right	*	*all\right	*	*	*	*	*all\right	*	*all\right	*
=1	=1	=1	=1	=1	=1	=1	=1	=1	=1	=1	=1	=1	=1	=1	=1	=1	=1
!LO:TX:a:i:t=Maestoso	!	!	!	!	!	!	!	!	!	!	!	!	!	!	!	!	!
!LO:TX:a:i:t=Unisono	!	!LO:DY:rj	!LO:TX:a:i:t=Maestoso	!LO:DY:rj	!LO:TX:a:i:t=Maestoso._	!LO:DY:rj	!LO:TX:a:i:t=Maestoso	!LO:DY:rj	!LO:TX:a:i:t=Maestoso,	!	!LO:DY:a:rj	!LO:TX:a:t=Kyrie Tacet	!LO:TX:a:t=Kyrie Tacet	!LO:TX:a:i:t=Maestoso	!LO:DY:rj	!LO:TX:a:t=Kyrie	!
4.C/	.	f	4.c/	f	(4.cc\	f	4.ccc\	f	4.cc\	Ky-	f	1ryy	1ryy	4.cc\	f	4.ccc\	.
16BB/LL	.	.	16B/LL	.	16b\LL	.	(16bb\LL	.	(16b\LL	-ri-	.	.	.	16b\LL	.	16bb\LL	.
16C/JJ	.	.	16c/JJ	.	16cc\JJ)	.	16ccc\JJ)	.	16cc\JJ)	.	.	.	.	16cc\JJ	.	16ccc\JJ	.
4.E/	.	.	4.e/	.	(4.ee\	.	4.eee\	.	4.ee\	-e	.	.	.	4.ee\	.	4.eee\	.
16C/LL	.	.	16c/LL	.	16cc\LL	.	(16ccc\LL	.	(16cc\LL	e-	.	.	.	16cc\LL	.	16ccc\LL	.
16AA/JJ	.	.	16A/JJ	.	16a\JJ)	.	16aa\JJ)	.	16a\JJ)	.	.	.	.	16a\JJ	.	16aa\JJ	.
=2	=2	=2	=2	=2	=2	=2	=2	=2	=2	=2	=2	=2	=2	=2	=2	=2	=2
!LO:TX:t=P:problem=mixed beam	!	!	!	!	!	!	!	!	!	!	!	!	!	!	!	!	!
8GG/L	.	.	4G/	.	4g/	.	4gg\	.	(4g/	-lej-	.	1ryy	1ryy	4g/	.	4gg\	.
8G\J	.	.	.	.	.	.	.	.	.	.	.	.	.	.	.	.	.
4FT\	.	.	4FT/	.	4fT/	.	4ffT\	.	4f/)	.	.	.	.	4fT/	.	4ffT\	.
4E\	.	.	4E/	.	4e/	.	4ee\	.	4e/	-son	.	.	.	4e/	.	4ee\	.
4r	.	.	4r	.	4r	.	4r	.	4r	.	.	.	.	4r	.	4r	.
=3	=3	=3	=3	=3	=3	=3	=3	=3	=3	=3	=3	=3	=3	=3	=3	=3	=3
!	!	!	!	!	!	!LO:DY:rj	!	!LO:DY:rj	!	!	!LO:DY:a:rj	!	!	!LO:TX:a:t=2	!	!LO:TX:a:t=2	!
4.E\	6 3	p	4.e/	p	4.g/	p	4.cc\	p	4.cc\	Ky-	p	1ryy	1ryy	0r	.	0r	.
8BB/	6 3	.	8B/	.	8g/	.	8dd\	.	8dd\	-ri-	.	.	.	.	.	.	.
4C/	5 3	.	4c/	.	4g/	.	4ee\	.	4ee\	-e	.	.	.	.	.	.	.
4C#X/	-7 3	.	4c#X/	.	4b-X 4g/	.	4ee\	.	4ee\	e-	.	.	.	.	.	.	.
=4	=4	=4	=4	=4	=4	=4	=4	=4	=4	=4	=4	=4	=4	=4	=4	=4	=4
!	!	!	!	!	!LO:N:vis=4	!	!	!	!	!	!	!	!	!	!	!	!
4.D\	6 -4 2	.	2.d/	.	4.b-X 4.g/	.	4.ee\	.	(4.ee\	-lej-	.	1ryy	1ryy	.	.	.	.
8D\	n6_ 4_ 3_	.	.	.	8bn 8g/	.	8ff\	.	8ff\)	.	.	.	.	.	.	.	.
4D\	.	.	.	.	4b 4g/	.	4ff\	.	4ff\	-son	.	.	.	.	.	.	.
4r	x	.	4r	.	4r	.	4r	.	4r	.	.	.	.	.	.	.	.
=5	=5	=5	=5	=5	=5	=5	=5	=5	=5	=5	=5	=5	=5	=5	=5	=5	=5
!LO:TX:a:i:t=uniso&colon;	!	!	!	!LO:DY:rj	!	!LO:DY:rj	!	!LO:DY:rj	!LO:N:vis=4	!	!LO:DY:a:rj	!	!	!	!LO:DY:rj	!	!
4.D\	.	.	4.d/	f	4.dd\	f	4.ddd\	f	4.dd\	Ky-	f	1ryy	1ryy	4.dd\	f	4.ddd\	.
16C#X\LL	.	.	16c#X/LL	.	(16cc#X\LL	.	(16ccc#X\LL	.	(16cc#X\LL	-ri-	.	.	.	16cc#X\LL	.	16ccc#X\LL	.
16D\JJ	.	.	16d/JJ	.	16dd\JJ)	.	16ddd\JJ)	.	16dd\JJ)	.	.	.	.	16dd\JJ	.	16ddd\JJ	.
4.F\	.	.	4.f/	.	4.ff\	.	4.fff\	.	4.ff\	-e	.	.	.	4.ff\	.	4.fff\	.
16D\LL	.	.	16d/LL	.	(16dd\LL	.	(16ddd\LL	.	(16dd\LL	e-	.	.	.	16dd\LL	.	16ddd\LL	.
16BB\JJ	.	.	16B/JJ	.	16b\JJ)	.	16bb\JJ)	.	16b\JJ)	.	.	.	.	16b\JJ	.	16bb\JJ	.
=6	=6	=6	=6	=6	=6	=6	=6	=6	=6	=6	=6	=6	=6	=6	=6	=6	=6
4.GG/	.	.	(4.G/	.	4.g/	.	(4.gg\	.	(4.g\	-lej-	.	1ryy	1ryy	4.g/	.	(4.gg\	.
16BB/LL	.	.	16B/LL	.	16b/LL	.	16bb\LL	.	(16b\LL	.	.	.	.	16b/LL	.	16bb\LL	.
16AA/JJ	.	.	16A/JJ)	.	16a/JJ	.	16aa\JJ	.	16a\JJ)	.	.	.	.	16a/JJ	.	16aa\JJ	.
4GG/	.	.	4G/	.	4g/	.	4gg\)	.	4g\)	-son	.	.	.	4g/	.	4gg\)	.
4r	.	.	4r	.	4r	.	4r	.	4r	.	.	.	.	4r	.	4r	.
=7	=7	=7	=7	=7	=7	=7	=7	=7	=7	=7	=7	=7	=7	=7	=7	=7	=7
!	!	!LO:DY:rj	!	!LO:DY:rj	!	!LO:DY:rj	!	!LO:DY:rj	!	!	!	!	!	!	!LO:DY:rj	!LO:TX:a:t=2	!
4.G 4.GG\	5_ 3_	p	4.g 4.G/	p	4.g 4.B/	p	4.dd\	p	4.dd\	Ky-	.	1ryy	1ryy	4.d/	p	0r	.
8G 8GG\	.	.	8g 8G/	.	8g 8B/	.	8dd\	.	8dd\	-ri-	.	.	.	8d/	.	.	.
4G 4GG\	4 2	.	4g 4G/	.	4g 4A/	.	4cc\	.	4cc\	-e	.	.	.	4c/	.	.	.
4G 4GG\	5 3	.	4g 4G/	.	4g 4B/	.	4dd\	.	4dd\	e-	.	.	.	4d/	.	.	.
=8	=8	=8	=8	=8	=8	=8	=8	=8	=8	=8	=8	=8	=8	=8	=8	=8	=8
4.C/	5 -3	.	4.g 4.G/	.	4.c/	.	4.dd#X\	.	(4.dd#X\	-lej-	.	1ryy	1ryy	4.d#X/	.	.	.
8C/	5_ n3_	.	8g 8G/	.	8c/	.	8ee\	.	8ee\)	.	.	.	.	8e/	.	.	.
4C/	.	.	4g 4G/	.	4c/	.	4ee\	.	4ee\	-son	.	.	.	4e/	.	.	.
4r	x	.	4r	.	4r	.	4r	.	4r	.	.	.	.	4r	.	.	.
=9	=9	=9	=9	=9	=9	=9	=9	=9	=9	=9	=9	=9	=9	=9	=9	=9	=9
!	!	!LO:DY:rj	!	!LO:DY:rj	!	!LO:DY:rj	!	!LO:DY:rj	!	!	!LO:DY:a:rj	!	!	!	!LO:DY:rj	!	!LO:DY:rj
4.A\	6	f	4.c/	f	4.cc\	f	4.ff\	f	4.ff\	Ky-	ff	1ryy	1ryy	4.f/	f	4.fff\	f
8G\	6 4	.	8c/	.	8cc\	.	8ee\	.	8ee\	-ri-	.	.	.	8e/	.	8eee\	.
4.F#X\	#6 5	.	4.c/	.	4cc\	.	4.dd#X\	.	4.dd#X\	-e	.	.	.	4.d#X/	.	4.ddd#X\	.
.	.	.	.	.	4cc\	.	.	.	.	.	.	.	.	.	.	.	.
8G\	6 4	.	8c/	.	.	.	8ee\	.	8ee\	e-	.	.	.	8e/	.	8eee\	.
!	!	!	!	!	!	!	!LO:LB:g=original	!	!	!	!	!	!	!	!	!	!
=10	=10	=10	=10	=10	=10	=10	=10	=10	=10	=10	=10	=10	=10	=10	=10	=10	=10
*	*	*	*	*	*rep	*	*	*	*	*	*	*	*	*	*	*	*
4.A\	6 3	.	4.c/	.	4.cc\	.	4.ff\	.	(4.ff\	-lej-	.	1ryy	1ryy	4.f/	.	4.fff\	.
8G\	6 4	.	8c/	.	8cc\	.	8ee\	.	8ee\)	.	.	.	.	8e/	.	8eee\	.
!	!	!	!	!	!	!	!	!	!LO:LB:g=original	!	!	!	!	!	!	!	!
4F\	10 5	.	4c/	.	4cc\	.	4aa\	.	4aa\	-son	.	.	.	4a/	.	4.fff\	.
4E\	10 6	.	4c/	.	4cc\	.	4gg\	.	4gg\	e-	.	.	.	4g/	.	.	.
.	.	.	.	.	.	.	.	.	.	.	.	.	.	.	.	8eee\	.
*	*	*	*	*	*Xrep	*	*	*	*	*	*	*	*	*	*	*	*
!LO:LB:g=original	!	!	!	!	!	!	!	!	!	!	!	!	!	!	!	!	!
=11	=11	=11	=11	=11	=11	=11	=11	=11	=11	=11	=11	=11	=11	=11	=11	=11	=11
*	*	*	*	*	*2\right	*	*	*	*	*	*	*	*	*	*	*	*
*	*	*	*tremolo	*	*tremolo	*	*tremolo	*	*	*	*	*	*	*	*	*	*
!	!	!	!	!	!	!	!LO:TX:t=''''	!	!	!	!	!	!	!	!	!LO:TX:t=P:problem=takty nr 11-12 zapisane repetycją	!
4.A\	6 3	.	16c/LL	.	16cc\LL	.	16ff|\LL	.	(4.ff\	-lej-	.	1ryy	1ryy	4.f/	.	4.fff\yy	.
.	.	.	16c/	.	16cc\	.	16ff|\	.	.	.	.	.	.	.	.	.	.
.	.	.	16c/	.	16cc\	.	16ff|\	.	.	.	.	.	.	.	.	.	.
.	.	.	16c/	.	16cc\	.	16ff|\JJ	.	.	.	.	.	.	.	.	.	.
.	.	.	16c/	.	16cc\	.	16ff\LL	.	.	.	.	.	.	.	.	.	.
.	.	.	16c/	.	16cc\	.	16ff\	.	.	.	.	.	.	.	.	.	.
8G\	6 4	.	16c/	.	16cc\	.	16ee\	.	8ee\)	.	.	.	.	8e/	.	8eee\yy	.
.	.	.	16c/JJ	.	16cc\JJ	.	16ee\JJ	.	.	.	.	.	.	.	.	.	.
4.F#X\	#6 5	.	16c/LL	.	16cc\LL	.	16dd#X\LL	.	4.dd#X\	-son	.	.	.	4.d#X/	.	4.ddd#X\yy	.
.	.	.	16c/	.	16cc\	.	16dd#\	.	.	.	.	.	.	.	.	.	.
.	.	.	16c/	.	16cc\	.	16dd#\	.	.	.	.	.	.	.	.	.	.
.	.	.	16c/	.	16cc\	.	16dd#\JJ	.	.	.	.	.	.	.	.	.	.
.	.	.	16c/	.	16cc\	.	16dd#\LL	.	.	.	.	.	.	.	.	.	.
.	.	.	16c/	.	16cc\	.	16dd#\	.	.	.	.	.	.	.	.	.	.
8G\	6 4	.	16c/	.	16cc\	.	16ee\	.	8ee\	e-	.	.	.	8e/	.	8eee\yy	.
.	.	.	16c/JJ	.	16cc\JJ	.	16ee\JJ	.	.	.	.	.	.	.	.	.	.
=12	=12	=12	=12	=12	=12	=12	=12	=12	=12	=12	=12	=12	=12	=12	=12	=12	=12
*	*	*	*rep	*	*rep	*	*	*	*	*	*	*	*	*	*	*	*
4.A\	6 3	.	16c/LL	.	16cc\LL	.	16ff\LL	.	(4.ff\	-lej-	.	1ryy	1ryy	4.f/	.	4.fff\yy	.
.	.	.	16c/	.	16cc\	.	16ff\	.	.	.	.	.	.	.	.	.	.
.	.	.	16c/	.	16cc\	.	16ff\	.	.	.	.	.	.	.	.	.	.
.	.	.	16c/	.	16cc\	.	16ff\JJ	.	.	.	.	.	.	.	.	.	.
.	.	.	16c/	.	16cc\	.	16ff\LL	.	.	.	.	.	.	.	.	.	.
.	.	.	16c/	.	16cc\	.	16ff\	.	.	.	.	.	.	.	.	.	.
8G\	6 4	.	16c/	.	16cc\	.	16ee\	.	8ee\)	.	.	.	.	8e/	.	8eee\yy	.
.	.	.	16c/JJ	.	16cc\JJ	.	16ee\JJ	.	.	.	.	.	.	.	.	.	.
4F\	10 5	.	16c/LL	.	16cc\LL	.	16aa\LL	.	4aa\	-son	.	.	.	4a/	.	4.fff\yy	.
.	.	.	16c/	.	16cc\	.	16aa\	.	.	.	.	.	.	.	.	.	.
.	.	.	16c/	.	16cc\	.	16aa\	.	.	.	.	.	.	.	.	.	.
.	.	.	16c/	.	16cc\	.	16aa\JJ	.	.	.	.	.	.	.	.	.	.
4E\	10 6	.	16c/	.	16cc\	.	16gg\LL	.	4gg\	e-	.	.	.	4g/	.	.	.
.	.	.	16c/	.	16cc\	.	16gg\	.	.	.	.	.	.	.	.	.	.
.	.	.	16c/	.	16cc\	.	16gg\	.	.	.	.	.	.	.	.	8eee\yy	.
.	.	.	16c/JJ	.	16cc\JJ	.	16gg\JJ	.	.	.	.	.	.	.	.	.	.
*	*	*	*Xrep	*	*Xrep	*	*	*	*	*	*	*	*	*	*	*	*
!	!	!	!LO:LB:g=original	!	!LO:LB:g=original	!	!	!	!	!	!	!	!	!	!	!	!
=13	=13	=13	=13	=13	=13	=13	=13	=13	=13	=13	=13	=13	=13	=13	=13	=13	=13
*2\right	*	*	*	*	*	*	*2\right	*	*2\right	*	*	*	*	*2\right	*	*	*
2D\	7 #3	.	16A/LL	.	16cc 16d/LL	.	16ff#X 16a\LL	.	(2ff#X\	-lej,-	.	1ryy	1ryy	2cc\	.	4fff#X\	.
.	.	.	16A/	.	16cc 16d/	.	16ff# 16a\	.	.	.	.	.	.	.	.	.	.
.	.	.	16A/	.	16cc 16d/	.	16ff# 16a\	.	.	.	.	.	.	.	.	.	.
.	.	.	16A/	.	16cc 16d/	.	16ff# 16a\	.	.	.	.	.	.	.	.	.	.
.	.	.	16A/	.	16cc 16d/	.	16ff# 16a\	.	.	.	.	.	.	.	.	4fff#\	.
.	.	.	16A/	.	16cc 16d/	.	16ff# 16a\	.	.	.	.	.	.	.	.	.	.
.	.	.	16A/	.	16cc 16d/	.	16ff# 16a\	.	.	.	.	.	.	.	.	.	.
.	.	.	16A/JJ	.	16cc 16d/JJ	.	16ff# 16a\JJ	.	.	.	.	.	.	.	.	.	.
*	*	*	*	*	*	*	*	*	*	*	*	*	*	*	*	*2\right	*
2G#X\	n7 3	.	16B/LL	.	16b 16d/LL	.	16ffn 16dd\LL	.	2ffn\)	.	.	.	.	2dd\	.	2fffn\	.
.	.	.	16B/	.	16b 16d/	.	16ff 16dd\	.	.	.	.	.	.	.	.	.	.
.	.	.	16B/	.	16b 16d/	.	16ff 16dd\	.	.	.	.	.	.	.	.	.	.
.	.	.	16B/	.	16b 16d/	.	16ff 16dd\	.	.	.	.	.	.	.	.	.	.
.	.	.	16B/	.	16b 16d/	.	16ff 16dd\	.	.	.	.	.	.	.	.	.	.
.	.	.	16B/	.	16b 16d/	.	16ff 16dd\	.	.	.	.	.	.	.	.	.	.
.	.	.	16B/	.	16b 16d/	.	16ff 16dd\	.	.	.	.	.	.	.	.	.	.
.	.	.	16B/JJ	.	16b 16d/JJ	.	16ff 16dd\JJ	.	.	.	.	.	.	.	.	.	.
*	*	*	*Xtremolo	*	*Xtremolo	*	*Xtremolo	*	*	*	*	*	*	*	*	*	*
!	!	!	!	!	!	!	!	!	!	!	!	!	!	!LO:LB:g=original	!	!	!
=14	=14	=14	=14	=14	=14	=14	=14	=14	=14	=14	=14	=14	=14	=14	=14	=14	=14
4A\	5 3	.	4c/	.	4cc 4d/	.	4ee 4a\	.	4ee\	-son	.	1ryy	1ryy	4ee\	.	4eee\	.
4r	.	.	4r	.	4r	.	4r	.	4r	.	.	.	.	4r	.	4r	.
4r	.	.	4r	.	4r	.	4r	.	4r	.	.	.	.	4r	.	2r	.
4F#X\	-7 3	.	4A/	.	4a 4c/	.	4cc 4e-X/	.	4cc\	e-	.	.	.	4e-X/	.	.	.
=15	=15	=15	=15	=15	=15	=15	=15	=15	=15	=15	=15	=15	=15	=15	=15	=15	=15
!	!	!	!	!	!	!	!LO:TX:t=P:problem=obiegnik przekreślony	!	!LO:TX:t=P:problem=obiegnik przekreślony	!	!	!	!	!LO:TX:t=P:problem=obiegnik przekreślony	!	!LO:TX:a:t=2	!
2G\	6 4	.	2e 2G/	.	2g 2G/	.	2cc 2en/S	.	(2ccS\	-lej-	.	1ryy	1ryy	2enS/	.	0r	.
2G\	7	.	2f 2G/	.	2g 2G/	.	4.ee 4.f/	.	4.ee\	.	.	.	.	4.f/	.	.	.
.	.	.	.	.	.	.	8dd 8f/	.	8dd\)	.	.	.	.	8f/	.	.	.
=16	=16	=16	=16	=16	=16	=16	=16	=16	=16	=16	=16	=16	=16	=16	=16	=16	=16
4C/	5 3	.	8c/L	p	8gL 8G/	.	4cc 4e/	.	4cc\	-son	.	1ryy	1ryy	4e/	.	.	.
.	.	.	8c/	.	8e 8G/	p	.	.	.	.	.	.	.	.	.	.	.
4r	.	.	8c/	.	8e 8G/	.	4r	.	4r	.	.	.	.	4r	.	.	.
.	.	.	8c/J	.	8eJ 8G/	.	.	.	.	.	.	.	.	.	.	.	.
!LO:TX:a:i:t=tasto Solo	!	!	!	!	!	!	!	!	!	!	!	!	!	!LO:TX:a:i:t=Tenor Solo	!	!	!
4C/	.	.	8r	.	8r	.	2r	.	2r	.	.	.	.	2r	.	.	.
*	*	*	*	*	*tremolo	*	*	*	*	*	*	*	*	*	*	*	*
.	.	.	8c/L	.	8e 8G/L	.	.	.	.	.	.	.	.	.	.	.	.
4r	.	.	8c/	.	8e 8G/	.	.	.	.	.	.	.	.	.	.	.	.
.	.	.	8c/J	.	8e 8G/J	.	.	.	.	.	.	.	.	.	.	.	.
!	!	!	!	!	!	!	!	!	!	!	!	!	!	!	!	!LO:LB:g=original	!
=17	=17	=17	=17	=17	=17	=17	=17	=17	=17	=17	=17	=17	=17	=17	=17	=17	=17
*	*	*	*	*	*	*	*	*	*	*	*	*	*	*cue	*	*	*
!	!	!	!	!	!	!	!LO:TX:a:i:t=Solo	!	!LO:TX:a:t=8	!	!	!	!	!	!	!LO:TX:a:t=Solo	!
2C/	.	.	8r	.	8r	.	2g/	.	00r	.	.	1ryy	1ryy	2g/	.	2gg\	.
*	*	*	*tremolo	*	*	*	*	*	*	*	*	*	*	*	*	*	*
.	.	.	8c/L	.	8e 8G/L	.	.	.	.	.	.	.	.	.	.	.	.
.	.	.	8c/	.	8e 8G/	.	.	.	.	.	.	.	.	.	.	.	.
.	.	.	8c/J	.	8e 8G/J	.	.	.	.	.	.	.	.	.	.	.	.
2C/	.	.	8r	.	8r	.	4.a/	.	.	.	.	.	.	4.a/	.	4.aa\	.
.	.	.	8e-X 8c/L	.	8f#X 8A/L	.	.	.	.	.	.	.	.	.	.	.	.
.	.	.	8e- 8c/	.	8f#X 8A/	.	.	.	.	.	.	.	.	.	.	.	.
!	!	!	!	!	!	!	!	!	!	!	!	!	!	!LO:N:vis=4	!	!	!
.	.	.	8e- 8c/J	.	8f#X 8A/J	.	8cc/	.	.	.	.	.	.	8cc/	.	8ccc\	.
=18	=18	=18	=18	=18	=18	=18	=18	=18	=18	=18	=18	=18	=18	=18	=18	=18	=18
*rep	*	*	*	*	*	*	*	*	*	*	*	*	*	*	*	*	*
2C/	.	.	8r	.	8r	.	2cc/	.	.	.	.	1ryy	1ryy	2cc\	.	2ccc\	.
.	.	.	8c/L	.	8e 8G/L	.	.	.	.	.	.	.	.	.	.	.	.
.	.	.	8c/	.	8e 8G/	.	.	.	.	.	.	.	.	.	.	.	.
.	.	.	8c/J	.	8e 8G/J	.	.	.	.	.	.	.	.	.	.	.	.
2C/	.	.	8r	.	8r	.	4g/	.	.	.	.	.	.	4g/	.	4gg\	.
.	.	.	8c/L	.	8e 8G/L	.	.	.	.	.	.	.	.	.	.	.	.
.	.	.	8c/	.	8e 8G/	.	8r	.	.	.	.	.	.	8r	.	8r	.
.	.	.	8c/J	.	8e 8G/J	.	8g/	.	.	.	.	.	.	8g/	.	8gg\	.
*Xrep	*	*	*	*	*	*	*	*	*	*	*	*	*	*	*	*	*
=19	=19	=19	=19	=19	=19	=19	=19	=19	=19	=19	=19	=19	=19	=19	=19	=19	=19
*rep	*	*	*rep	*	*	*	*	*	*	*	*	*	*	*	*	*	*
2C/	.	.	8r	.	8r	.	4a/	.	.	.	.	1ryy	1ryy	(4a\	.	4aa\	.
.	.	.	8c/L	.	8f 8A/L	.	.	.	.	.	.	.	.	.	.	.	.
.	.	.	8c/	.	8f 8A/	.	4ff\	.	.	.	.	.	.	4ff\)	.	4fff\	.
.	.	.	8c/J	.	8f 8A/J	.	.	.	.	.	.	.	.	.	.	.	.
2C/	.	.	8r	.	8r	.	4cc\	.	.	.	.	.	.	4cc\	.	4ccc\	.
.	.	.	8c/L	.	8f 8A/L	.	.	.	.	.	.	.	.	.	.	.	.
.	.	.	8c/	.	8f 8A/	.	4aa\	.	.	.	.	.	.	4aa\	.	4aaa\	.
.	.	.	8c/J	.	8f 8A/J	.	.	.	.	.	.	.	.	.	.	.	.
*Xrep	*	*	*Xrep	*	*Xtremolo	*	*	*	*	*	*	*	*	*	*	*	*
*	*	*	*Xtremolo	*	*	*	*	*	*	*	*	*	*	*	*	*	*
=20	=20	=20	=20	=20	=20	=20	=20	=20	=20	=20	=20	=20	=20	=20	=20	=20	=20
4C/	.	.	8r	.	8r	.	(4.ff#X\	.	.	.	.	1ryy	1ryy	(4.ff#X\	.	4.fff#X\	.
.	.	.	8e-X 8c/	.	8f#X 8A/	.	.	.	.	.	.	.	.	.	.	.	.
4C/	.	.	8r	.	8r	.	.	.	.	.	.	.	.	.	.	.	.
.	.	.	8e- 8c/	.	8f# 8A/	.	16gg\LL	.	.	.	.	.	.	16gg\LL	.	16ggg\LL	.
.	.	.	.	.	.	.	16aa\JJ	.	.	.	.	.	.	16aa\JJ)	.	16aaa\JJ	.
2C/	.	.	8r	.	8r	.	4gg\)	.	.	.	.	.	.	4gg\	.	4ggg\	.
*	*	*	*tremolo	*	*tremolo	*	*	*	*	*	*	*	*	*	*	*	*
.	.	.	8e 8c/L	.	8g 8G/L	.	.	.	.	.	.	.	.	.	.	.	.
.	.	.	8e 8c/	.	8g 8G/	.	4r	.	.	.	.	.	.	4r	.	4r	.
.	.	.	8e 8c/J	.	8g 8G/J	.	.	.	.	.	.	.	.	.	.	.	.
!	!	!	!	!	!	!	!LO:LB:g=original	!	!	!	!	!	!	!	!	!	!
=21	=21	=21	=21	=21	=21	=21	=21	=21	=21	=21	=21	=21	=21	=21	=21	=21	=21
2F\	.	.	8r	.	8r	.	4.gg\	.	00r	.	.	1ryy	1ryy	4.gg\	.	4.ggg\	.
.	.	.	8B/L	.	8g 8G/L	.	.	.	.	.	.	.	.	.	.	.	.
.	.	.	8B/	.	8g 8G/	.	.	.	.	.	.	.	.	.	.	.	.
.	.	.	8B/J	.	8g 8G/J	.	8b\	.	.	.	.	.	.	8b\	.	8bb\	.
2E\	.	.	8r	.	8r	.	4dd\	.	.	.	.	.	.	4dd\	.	4ddd\	.
.	.	.	8c/L	.	8g 8G/L	.	.	.	.	.	.	.	.	.	.	.	.
.	.	.	8c/	.	8g 8G/	.	4cc\	.	.	.	.	.	.	4cc\	.	4ccc\	.
.	.	.	8c/J	.	8g 8G/J	.	.	.	.	.	.	.	.	.	.	.	.
=22	=22	=22	=22	=22	=22	=22	=22	=22	=22	=22	=22	=22	=22	=22	=22	=22	=22
*	*	*	*rep	*	*rep	*	*	*	*	*	*	*	*	*	*	*	*
2F\	.	.	8r	.	8r	.	8b\L	.	.	.	.	1ryy	1ryy	8b\L	.	8bb\L	.
.	.	.	8B/L	.	8g 8G/L	.	16cc\L	.	.	.	.	.	.	16cc\L	.	16ccc\L	.
.	.	.	.	.	.	.	16b\JJ	.	.	.	.	.	.	16b\JJ	.	16ccc\JJ	.
.	.	.	8B/	.	8g 8G/	.	8a\L	.	.	.	.	.	.	8a\	.	8aa\L	.
.	.	.	8B/J	.	8g 8G/J	.	8b\J	.	.	.	.	.	.	8b\	.	8bb\J	.
2E\	.	.	8r	.	8r	.	4dd\	.	.	.	.	.	.	4dd\	.	4ddd\	.
.	.	.	8c/L	.	8g 8G/L	.	.	.	.	.	.	.	.	.	.	.	.
.	.	.	8c/	.	8g 8G/	.	8cc\L	.	.	.	.	.	.	8cc\	.	8ccc\L	.
.	.	.	8c/J	.	8g 8G/J	.	8ee\J	.	.	.	.	.	.	8ee\	.	8eee\J	.
*	*	*	*Xrep	*	*Xrep	*	*	*	*	*	*	*	*	*	*	*	*
*	*	*	*Xtremolo	*	*Xtremolo	*	*	*	*	*	*	*	*	*	*	*	*
=23	=23	=23	=23	=23	=23	=23	=23	=23	=23	=23	=23	=23	=23	=23	=23	=23	=23
!	!	!	!	!LO:DY:rj	!	!LO:DY:rj	!	!	!	!	!	!	!	!	!	!	!
2D\	6 4	.	2d 2G/	f	2g 2B/	f	(16dd\LL	.	.	.	.	1ryy	1ryy	16dd\LL	.	16ddd\LL	.
.	.	.	.	.	.	.	16ee\	.	.	.	.	.	.	16ee\	.	16eee\	.
.	.	.	.	.	.	.	16ff#X\	.	.	.	.	.	.	16ff\	.	16fff#X\	.
.	.	.	.	.	.	.	16gg\JJ)	.	.	.	.	.	.	16gg\JJ	.	16ggg\JJ	.
.	.	.	.	.	.	.	(16b\LL	.	.	.	.	.	.	16b\LL	.	16bb\LL	.
.	.	.	.	.	.	.	16cc\	.	.	.	.	.	.	16cc\	.	16ccc\	.
.	.	.	.	.	.	.	16dd\	.	.	.	.	.	.	16dd\	.	16ddd\	.
.	.	.	.	.	.	.	16dd#X\JJ)	.	.	.	.	.	.	16dd#X\JJ	.	16ddd#X\JJ	.
4D\	7 #3	.	8r	.	8r	p	[4ff#X\	.	.	.	.	.	.	[4ff#X\	.	[4fff#X\	.
*	*	*	*tremolo	*	*tremolo	*	*	*	*	*	*	*	*	*	*	*	*
.	.	.	8d 8c/L	.	8f#X 8A/L	.	.	.	.	.	.	.	.	.	.	.	.
4r	.	.	8d 8c/	.	8f# 8A/	.	16ff#\LL]	.	.	.	.	.	.	16ff#\LL]	.	16fff#\LL]	.
.	.	.	.	.	.	.	16ee\	.	.	.	.	.	.	16ee\JJ	.	16eee\	.
.	.	.	8d 8c/J	.	8f# 8A/J	.	16cc\	.	.	.	.	.	.	16cc\	.	16ccc\	.
.	.	.	.	.	.	.	16a\JJ	.	.	.	.	.	.	16a\	.	16aa\JJ	.
!	!	!	!	!	!	!	!	!	!	!	!	!	!	!	!	!LO:LB:g=original	!
=24	=24	=24	=24	=24	=24	=24	=24	=24	=24	=24	=24	=24	=24	=24	=24	=24	=24
!LO:TX:a:i:t=tasto Solo	!	!	!	!	!	!	!	!	!	!	!	!	!	!	!	!	!
4GG/	.	.	8r	.	8r	.	(4.g/	.	.	.	.	1ryy	1ryy	(4.g/	.	(4.gg\	.
.	.	.	8d 8B/L	.	8g 8G/L	.	.	.	.	.	.	.	.	.	.	.	.
4r	.	.	8d 8B/	.	8g 8G/	.	.	.	.	.	.	.	.	.	.	.	.
.	.	.	8d 8B/J	.	8g 8G/J	.	16b/LL	.	.	.	.	.	.	16b/LL	.	16bb\LL	.
.	.	.	.	.	.	.	16a/JJ	.	.	.	.	.	.	16a/JJ)	.	16aa\JJ)	.
4GG/	.	.	8r	.	8r	.	4g/)	.	.	.	.	.	.	4g/	.	4gg\	.
.	.	.	8d 8B/L	.	8g 8G/L	.	.	.	.	.	.	.	.	.	.	.	.
4r	.	.	8d 8B/	.	8g 8G/	.	4r	.	.	.	.	.	.	4r	.	4r	.
.	.	.	8d 8B/J	.	8g 8G/J	.	.	.	.	.	.	.	.	.	.	.	.
*	*	*	*Xtremolo	*	*	*	*	*	*	*	*	*	*	*Xcue	*	*	*
=25	=25	=25	=25	=25	=25	=25	=25	=25	=25	=25	=25	=25	=25	=25	=25	=25	=25
!	!	!	!LO:TX:a:i:t=Solo	!	!	!	!	!	!	!	!	!	!	!LO:TX:a:t=4	!	!	!
2D\	.	.	2d/	.	8r	.	8r	p	2dd\	Chry-	.	1ryy	1ryy	00r	.	4.ddd\	.
*	*	*	*	*	*	*	*tremolo	*	*	*	*	*	*	*	*	*	*
.	.	.	.	.	8d/L	.	8f 8A/L	.	.	.	.	.	.	.	.	.	.
.	.	.	.	.	8d/	.	8f 8A/	.	.	.	.	.	.	.	.	.	.
.	.	.	.	.	8d/J	.	8f 8A/J	.	.	.	.	.	.	.	.	8ddd\	.
!	!	!	!	!	!LO:LB:g=original	!	!	!	!	!	!	!	!	!	!	!	!
2C#X\	.	.	4e/	.	8r	.	8r	.	4ee\	-ste,	.	.	.	.	.	4eee\	.
.	.	.	.	.	8e/L	.	8g 8A/L	.	.	.	.	.	.	.	.	.	.
.	.	.	4A/	.	8e/	.	8g 8A/	.	4a\	e-	.	.	.	.	.	4aa\	.
.	.	.	.	.	8e/J	.	8g 8A/J	.	.	.	.	.	.	.	.	.	.
*	*	*	*	*	*Xtremolo	*	*Xtremolo	*	*	*	*	*	*	*	*	*	*
=26	=26	=26	=26	=26	=26	=26	=26	=26	=26	=26	=26	=26	=26	=26	=26	=26	=26
4.D\	.	.	([4f\	.	8r	.	8r	.	([4ff\	-lej-	.	1ryy	1ryy	.	.	(4fff\	.
.	.	.	.	.	8d/L	.	8fL 8A/	.	.	.	.	.	.	.	.	.	.
.	.	.	16f\LL]	.	8d/	.	8f 8A/	.	16ff\LL]	.	.	.	.	.	.	16fff\LL	.
.	.	.	16g\	.	.	.	.	.	16gg\	.	.	.	.	.	.	16ggg\	.
8E\	.	.	16f\	.	8c#X/J	.	8gJ 8A/	.	16ff\	.	.	.	.	.	.	16fff\	.
.	.	.	16e\JJ)	.	.	.	.	.	16ee\JJ)	.	.	.	.	.	.	16eee\JJ)	.
4.F\	.	.	4.d/	.	8r	.	8r	.	4.dd\	-son,	.	.	.	.	.	4.ddd\	.
.	.	.	.	.	8d/L	.	8fL 8A/	.	.	.	.	.	.	.	.	.	.
.	.	.	.	.	8d/	.	8f 8A/	.	.	.	.	.	.	.	.	.	.
8F#X\	.	.	8c/	.	8d/J	.	8c/J	.	8cc\	e-	.	.	.	.	.	8ccc\	.
!LO:LB:g=original	!	!	!LO:LB:g=original	!	!	!	!	!	!	!	!	!	!	!	!	!	!
=27	=27	=27	=27	=27	=27	=27	=27	=27	=27	=27	=27	=27	=27	=27	=27	=27	=27
4G\	.	.	4.B/	.	8r	.	8r	.	2b\	-lej-	.	1ryy	1ryy	.	.	4.bb\	.
*	*	*	*	*	*tremolo	*	*tremolo	*	*	*	*	*	*	*	*	*	*
.	.	.	.	.	8d/L	.	8f 8A/L	.	.	.	.	.	.	.	.	.	.
4Fn\	.	.	.	.	8d/	.	8f 8A/	.	.	.	.	.	.	.	.	.	.
.	.	.	8B/	.	8d/J	.	8f 8A/J	.	.	.	.	.	.	.	.	8bb\	.
*	*	*	*	*	*Xtremolo	*	*Xtremolo	*	*	*	*	*	*	*	*	*	*
4E\	.	.	(8c/L	.	8r	.	8r	.	(8cc\L	-son,	.	.	.	.	.	(8ccc\L	.
.	.	.	8G/J)	.	8c/	.	8g 8G/	.	8g\J)	.	.	.	.	.	.	8gg\J)	.
4BB/	.	.	(8d/L	.	8r	.	8r	.	(8dd\L	e-	.	.	.	.	.	8ddd\L	.
.	.	.	8G/J)	.	8d/	.	8f 8G/	.	8g\J)	.	.	.	.	.	.	8gg\J	.
=28	=28	=28	=28	=28	=28	=28	=28	=28	=28	=28	=28	=28	=28	=28	=28	=28	=28
4.C/	.	.	(4e\	.	8r	.	8r	.	([4ee\	-lej-	.	1ryy	1ryy	.	.	([4eee\	.
.	.	.	.	.	8c/L	.	8eL 8G/	.	.	.	.	.	.	.	.	.	.
.	.	.	16e\LL	.	8c/	.	8e 8G/	.	16ee\LL]	.	.	.	.	.	.	16eee\LL]	.
.	.	.	16f\	.	.	.	.	.	16ff\	.	.	.	.	.	.	16fff\	.
8GG/	.	.	16e\	.	8dJ 8B/	.	8fJ 8G/	.	16ee\	.	.	.	.	.	.	16eee\	.
.	.	.	16d\JJ)	.	.	.	.	.	16dd\JJ)	.	.	.	.	.	.	16ddd\JJ)	.
4C/	.	.	4c/	.	8r	.	8r	.	4cc\	-son	.	.	.	.	.	4ccc\	.
*	*	*	*	*	*tremolo	*	*tremolo	*	*	*	*	*	*	*	*	*	*
.	.	.	.	.	8c/L	.	8e 8G/L	.	.	.	.	.	.	.	.	.	.
4r	.	.	4r	.	8c/	.	8e 8G/	.	4r	.	.	.	.	.	.	4r	.
.	.	.	.	.	8c/J	.	8e 8G/J	.	.	.	.	.	.	.	.	.	.
*	*	*	*	*	*	*	*Xtremolo	*	*	*	*	*	*	*	*	*	*
!	!	!	!	!	!	!	!LO:LB:g=original	!	!LO:LB:g=original	!	!	!	!	!	!	!	!
=29	=29	=29	=29	=29	=29	=29	=29	=29	=29	=29	=29	=29	=29	=29	=29	=29	=29
!	!	!	!	!LO:DY:rj	!	!	!LO:TX:a:i:t=Solo	!	!LO:TX:a:i:t=dolce	!	!	!	!	!	!	!LO:TX:a:t=11	!
2A-X\	.	.	8r	p	8r	.	2c/	.	2cc\	Chry-	.	1ryy	1ryy	2a-X/	.	00r	.
*	*	*	*tremolo	*	*	*	*	*	*	*	*	*	*	*	*	*	*
.	.	.	8e-X 8c/L	.	8a-X/L	.	.	.	.	.	.	.	.	.	.	.	.
.	.	.	8e- 8c/	.	8a-/	.	.	.	.	.	.	.	.	.	.	.	.
.	.	.	8e- 8c/J	.	8a-/J	.	.	.	.	.	.	.	.	.	.	.	.
2G\	.	.	8r	.	8r	.	4e-X/	.	4ee-X\	-ste	.	.	.	2g/	.	.	.
.	.	.	8e-X 8d-X/L	.	8b-X/L	.	.	.	.	.	.	.	.	.	.	.	.
.	.	.	8e- 8d-/	.	8b-/	.	4B-X/	.	4b-X\	e-	.	.	.	.	.	.	.
.	.	.	8e- 8d-/J	.	8b-/J	.	.	.	.	.	.	.	.	.	.	.	.
!	!	!	!	!	!	!	!	!	!	!	!	!	!	!LO:LB:g=original	!	!	!
=30	=30	=30	=30	=30	=30	=30	=30	=30	=30	=30	=30	=30	=30	=30	=30	=30	=30
*rep	*	*	*rep	*	*rep	*	*rep	*	*	*	*	*	*	*	*	*	*
2A-X\	.	.	8r	.	8r	.	2c/	.	2cc\	-lej-	.	1ryy	1ryy	2a-X/	.	.	.
.	.	.	8e-X 8c/L	.	8a-X/L	.	.	.	.	.	.	.	.	.	.	.	.
.	.	.	8e- 8c/	.	8a-/	.	.	.	.	.	.	.	.	.	.	.	.
.	.	.	8e- 8c/J	.	8a-/J	.	.	.	.	.	.	.	.	.	.	.	.
2G\	.	.	8r	.	8r	.	4e-X/	.	4ee-X\	-son	.	.	.	2g/	.	.	.
.	.	.	8e-X 8d-X/L	.	8b-X/L	.	.	.	.	.	.	.	.	.	.	.	.
.	.	.	8e- 8d-/	.	8b-/	.	4B-X/	.	4b-X\	e-	.	.	.	.	.	.	.
.	.	.	8e- 8d-/J	.	8b-/J	.	.	.	.	.	.	.	.	.	.	.	.
*Xrep	*	*	*Xrep	*	*Xrep	*	*Xrep	*	*	*	*	*	*	*	*	*	*
=31	=31	=31	=31	=31	=31	=31	=31	=31	=31	=31	=31	=31	=31	=31	=31	=31	=31
2A-X\	.	.	8r	.	8r	.	4c/	.	4cc\	-lej-	.	1ryy	1ryy	4a-X/	.	.	.
.	.	.	8e-X 8c/L	.	8a-X/L	.	.	.	.	.	.	.	.	.	.	.	.
.	.	.	8e- 8c/	.	8a-/	.	4.a-X/	.	(4.aa-X\	-son	.	.	.	4.c/	.	.	.
.	.	.	8e- 8c/J	.	8a-/J	.	.	.	.	.	.	.	.	.	.	.	.
2D-X\	.	.	8r	.	8r	.	.	.	.	.	.	.	.	.	.	.	.
.	.	.	8d-X/L	.	8b-X 8f/L	.	8f/L	.	8ff\)	.	.	.	.	8d-X/L	.	.	.
.	.	.	8d-/	.	8b- 8f/	.	8d-X/	.	(8dd-X\L	e-	.	.	.	8f/	.	.	.
.	.	.	8d-/J	.	8b- 8f/J	.	8c/J	.	8cc\J)	.	.	.	.	8a-/J	.	.	.
=32	=32	=32	=32	=32	=32	=32	=32	=32	=32	=32	=32	=32	=32	=32	=32	=32	=32
2E-X\	.	.	8r	.	8r	.	4B-X/	.	(4b-X\	-lej-	.	1ryy	1ryy	4g/	.	.	.
.	.	.	8e-X\L	.	8g 8B-X/L	.	.	.	.	.	.	.	.	.	.	.	.
.	.	.	8e-\	.	8g 8B-/	.	16A/LL	.	16a\LL	.	.	.	.	16f#X/LL	.	.	.
.	.	.	.	.	.	.	16B-X/	.	16b-\	.	.	.	.	16g/	.	.	.
.	.	.	8e-\J	.	8g 8B-/J	.	16d-X/	.	16dd-X\	.	.	.	.	16b-X/	.	.	.
.	.	.	.	.	.	.	16c/JJ	.	16cc\JJ)	.	.	.	.	16a-X/JJ	.	.	.
2E-\	.	.	8r	.	8r	.	4B-/	.	4b-\	-son	.	.	.	4g/	.	.	.
.	.	.	8e-\L	.	8g 8B-/L	.	.	.	.	.	.	.	.	.	.	.	.
.	.	.	8e-\	.	8g 8B-/	.	4r	.	4r	.	.	.	.	4r	.	.	.
.	.	.	8e-\J	.	8g 8B-/J	.	.	.	.	.	.	.	.	.	.	.	.
=33	=33	=33	=33	=33	=33	=33	=33	=33	=33	=33	=33	=33	=33	=33	=33	=33	=33
2A-X\	.	.	8r	.	8r	.	4.c/	.	(4.cc\	Chri-	.	1ryy	1ryy	2a-X/	.	00r	.
.	.	.	8e-X 8c/L	.	8a-X/L	.	.	.	.	.	.	.	.	.	.	.	.
.	.	.	8e- 8c/	.	8a-/	.	.	.	.	.	.	.	.	.	.	.	.
.	.	.	8e- 8c/J	.	8a-/J	.	16Bn/LL	.	16b\LL	.	.	.	.	.	.	.	.
.	.	.	.	.	.	.	16c/JJ	.	16cc\JJ)	.	.	.	.	.	.	.	.
2G\	.	.	8r	.	8r	.	8f/L	.	(8ff\L	-ste	.	.	.	2g/	.	.	.
.	.	.	8e-X 8d-X/L	.	8b-X/L	.	8e-X/	.	8ee-X\J)	.	.	.	.	.	.	.	.
.	.	.	8e- 8d-/	.	8b-/	.	8d-X/	.	(8dd-X\L	e-	.	.	.	.	.	.	.
.	.	.	8e- 8d-/J	.	8b-/J	.	8B/J	.	8b-X\J)	.	.	.	.	.	.	.	.
=34	=34	=34	=34	=34	=34	=34	=34	=34	=34	=34	=34	=34	=34	=34	=34	=34	=34
*rep	*	*	*rep	*	*rep	*	*rep	*	*	*	*	*	*	*	*	*	*
!	!	!	!	!	!	!	!	!	!	!	!	!	!	!LO:SIC:v:s=2a-/	!	!	!
2A-X\	.	.	8r	.	8r	.	4.c/	.	(4.cc\	-lej-	.	1ryy	1ryy	2a/	.	.	.
.	.	.	8e-X 8c/L	.	8a-X/L	.	.	.	.	.	.	.	.	.	.	.	.
.	.	.	8e- 8c/	.	8a-/	.	.	.	.	.	.	.	.	.	.	.	.
.	.	.	8e- 8c/J	.	8a-/J	.	16Bn/LL	.	16bn\LL	.	.	.	.	.	.	.	.
.	.	.	.	.	.	.	16c/JJ	.	16cc\JJ)	.	.	.	.	.	.	.	.
2G\	.	.	8r	.	8r	.	8f/L	.	(8ff\L	-son	.	.	.	2g/	.	.	.
.	.	.	8e-X 8d-X/L	.	8b-X/L	.	8e-X/	.	8ee-X\J)	.	.	.	.	.	.	.	.
.	.	.	8e- 8d-/	.	8b-/	.	8d-X/	.	(8dd-X\L	e-	.	.	.	.	.	.	.
.	.	.	8e- 8d-/J	.	8b-/J	.	8B/J	.	8b-X\J)	.	.	.	.	.	.	.	.
*Xrep	*	*	*Xrep	*	*Xrep	*	*Xrep	*	*	*	*	*	*	*	*	*	*
=35	=35	=35	=35	=35	=35	=35	=35	=35	=35	=35	=35	=35	=35	=35	=35	=35	=35
2A-X\	.	.	8r	.	8r	.	2c/	.	2cc\	-lei-	.	1ryy	1ryy	2a-X/	.	.	.
.	.	.	8e-X 8c/L	.	8a-X/L	.	.	.	.	.	.	.	.	.	.	.	.
.	.	.	8e- 8c/	.	8a-/	.	.	.	.	.	.	.	.	.	.	.	.
.	.	.	8e- 8c/J	.	8a-/J	.	.	.	.	.	.	.	.	.	.	.	.
2A-\	.	.	8r	.	8r	.	4d/	.	4.dd\	-son	.	.	.	2f#X/	.	.	.
.	.	.	8f#X\L	.	8cc 8d/L	.	.	.	.	.	.	.	.	.	.	.	.
.	.	.	8f#\	.	8cc 8d/	.	4c/	.	.	.	.	.	.	.	.	.	.
.	.	.	8f#\J	.	8cc 8d/J	.	.	.	8cc\	e-	.	.	.	.	.	.	.
=36	=36	=36	=36	=36	=36	=36	=36	=36	=36	=36	=36	=36	=36	=36	=36	=36	=36
2G\	.	.	8r	.	8r	.	4B/	.	4b\	-lei-	.	1ryy	1ryy	4g/	.	.	.
.	.	.	8g\L	.	8bn 8d/L	.	.	.	.	.	.	.	.	.	.	.	.
.	.	.	8g\	.	8b 8d/	.	2dd\	.	4g\	-son	.	.	.	4g/	.	.	.
.	.	.	8g\J	.	8b 8d/J	.	.	.	.	.	.	.	.	.	.	.	.
!	!	!	!	!	!LO:TX:t=P:problem=custos jako łamanie pięciolinii	!	!	!	!	!	!	!	!	!	!	!	!
!	!	!	!	!	!LO:LB:g=original	!	!	!	!	!	!	!	!	!	!	!	!
2F#X\	.	.	8r	.	8r	.	.	.	2r	.	.	.	.	2r	.	.	.
.	.	.	8d 8c/L	.	8a 8d/L	.	.	.	.	.	.	.	.	.	.	.	.
.	.	.	8d 8c/	.	8a 8d/	.	8ee\L	.	.	.	.	.	.	.	.	.	.
.	.	.	8d 8c/J	.	8a 8d/J	.	8ff#X\J	.	.	.	.	.	.	.	.	.	.
=37	=37	=37	=37	=37	=37	=37	=37	=37	=37	=37	=37	=37	=37	=37	=37	=37	=37
!	!	!	!	!	!	!	!	!	!LO:TX:a:t=3	!	!	!	!	!LO:TX:a:t=3	!	!	!
2G\	.	.	8r	.	8r	.	8gg\L	.	0r	.	.	1ryy	1ryy	0r	.	0r	.
.	.	.	8d 8B/L	.	8g 8G/L	.	8bb\J	.	.	.	.	.	.	.	.	.	.
.	.	.	8d 8B/	.	8g 8G/	.	4.dd\	.	.	.	.	.	.	.	.	.	.
.	.	.	8d 8B/J	.	8g 8G/J	.	.	.	.	.	.	.	.	.	.	.	.
2D\	.	.	8r	.	8r	.	.	.	.	.	.	.	.	.	.	.	.
.	.	.	8d 8c/L	.	8f#X 8A/L	.	8cc\L	.	.	.	.	.	.	.	.	.	.
.	.	.	8d 8c/	.	8f# 8A/	.	8a\	.	.	.	.	.	.	.	.	.	.
.	.	.	8d 8c/J	.	8f# 8A/J	.	8ee\J	.	.	.	.	.	.	.	.	.	.
=38	=38	=38	=38	=38	=38	=38	=38	=38	=38	=38	=38	=38	=38	=38	=38	=38	=38
*	*	*	*rep	*	*	*	*	*	*	*	*	*	*	*	*	*	*
2G\	.	.	8r	.	8r	.	8dd\L	.	.	.	.	1ryy	1ryy	.	.	.	.
.	.	.	8d 8B/L	.	8g 8G/L	.	8b\J	.	.	.	.	.	.	.	.	.	.
.	.	.	8d 8B/	.	8g 8G/	.	4g/	.	.	.	.	.	.	.	.	.	.
.	.	.	8d 8B/J	.	8g 8G/J	.	.	.	.	.	.	.	.	.	.	.	.
2F#X\	.	.	8r	.	8r	.	8r	.	.	.	.	.	.	.	.	.	.
.	.	.	8d 8c/L	.	8a 8d/L	.	8dd\L	.	.	.	.	.	.	.	.	.	.
.	.	.	8d 8c/	.	8a 8d/	.	8ee\	.	.	.	.	.	.	.	.	.	.
.	.	.	8d 8c/J	.	8a 8d/J	.	8ff#X\J	.	.	.	.	.	.	.	.	.	.
*	*	*	*Xrep	*	*	*	*	*	*	*	*	*	*	*	*	*	*
=39	=39	=39	=39	=39	=39	=39	=39	=39	=39	=39	=39	=39	=39	=39	=39	=39	=39
*	*	*	*rep	*	*	*	*	*	*	*	*	*	*	*	*	*	*
2G\	.	.	8r	.	8r	.	(8gg\L	.	1r	.	.	1ryy	1ryy	1r	.	1r	.
.	.	.	8d 8B/L	.	8g 8G/L	.	8bb\)	.	.	.	.	.	.	.	.	.	.
.	.	.	8d 8B/	.	8g 8G/	.	8dd\	.	.	.	.	.	.	.	.	.	.
.	.	.	8d 8B/J	.	8g 8G/J	.	8ee\J	.	.	.	.	.	.	.	.	.	.
2D\	.	.	8r	.	8r	.	8dd\L	.	.	.	.	.	.	.	.	.	.
.	.	.	8d 8c/L	.	8f#X 8A/L	.	8cc\	.	.	.	.	.	.	.	.	.	.
.	.	.	8d 8c/	.	8f# 8A/	.	8a\	.	.	.	.	.	.	.	.	.	.
.	.	.	8d 8c/J	.	8f# 8A/J	.	8dd\J	.	.	.	.	.	.	.	.	.	.
*	*	*	*Xrep	*	*	*	*	*	*	*	*	*	*	*	*	*	*
*	*	*	*Xtremolo	*	*Xtremolo	*	*	*	*	*	*	*	*	*	*	*	*
!	!	!	!	!	!	!	!LO:LB:g=original	!	!	!	!	!	!	!	!	!	!
=40	=40	=40	=40	=40	=40	=40	=40	=40	=40	=40	=40	=40	=40	=40	=40	=40	=40
4G\	8 5 3	.	4d 4B/	.	4g 4G/	.	4g/	.	1r;	.	.	1ryy	1ryy	1r;	.	1r;	.
4GG/	#6 4 3	.	4g 4B/	.	4dd 4d/	.	4gg 4b^<\	.	.	.	.	.	.	.	.	.	.
!	!	!	!LO:LB:g=original	!	!	!	!	!	!	!	!	!	!	!	!	!	!
4AA/	.	.	4B/	.	4cc 4d/	.	4ff#X 4a^<\	.	.	.	.	.	.	.	.	.	.
4BB;</	n6 5 3	.	4f 4G;/	.	4g;</	.	4ffn 4ddn^<;\	.	.	.	.	.	.	.	.	.	.
!	!	!	!	!	!	!	!	!	!LO:LB:g=original	!	!	!	!	!	!	!	!
=41	=41	=41	=41	=41	=41	=41	=41	=41	=41	=41	=41	=41	=41	=41	=41	=41	=41
!LO:TX:a:i:t=unisono	!	!LO:DY:rj	!	!LO:DY:rj	!	!LO:DY:rj	!	!LO:DY:rj	!	!	!LO:DY:a	!	!	!	!LO:DY:rj	!	!LO:DY:rj
4.C/	.	f	4.c/	f	4.cc\	f	4.ccc\	f	4.cc\	Ky-	f	1ryy	1ryy	4.cc\	f	4.ccc\	f
16BB/LL	.	.	16B/LL	.	16b\LL	.	(16bb\LL	.	16b\LL	-ri-	.	.	.	16b\LL	.	16bb\LL	.
16C/JJ	.	.	16c/JJ	.	16cc\JJ	.	16ccc\JJ)	.	16cc\JJ	.	.	.	.	16cc\JJ	.	16ccc\JJ	.
!	!	!	!LO:N:vis=4	!	!	!	!	!	!	!	!	!	!	!	!	!	!
4.E/	.	.	4.e/	.	4.ee\	.	4.eee\	.	4.ee\	-e	.	.	.	4.ee\	.	4.eee\	.
16C/LL	.	.	16c/LL	.	16cc\LL	.	(16ccc\LL	.	(16cc\LL	e-	.	.	.	16cc\LL	.	16ccc\LL	.
16AA/JJ	.	.	16A/JJ	.	16a\JJ	.	16aa\JJ)	.	16a\JJ)	.	.	.	.	16a\JJ	.	16aa\JJ	.
=42	=42	=42	=42	=42	=42	=42	=42	=42	=42	=42	=42	=42	=42	=42	=42	=42	=42
!LO:TX:t=P:problem=mixed beam	!	!	!	!	!	!	!	!	!	!	!	!	!	!	!	!	!
8GG/L	.	.	4G/	.	4g/	.	4gg\	.	(4g/	-lei-	.	1ryy	1ryy	4g/	.	4gg\	.
8G\J	.	.	.	.	.	.	.	.	.	.	.	.	.	.	.	.	.
4FT\	.	.	4FT/	.	4fT/	.	4ffT\	.	4f/)	.	.	.	.	4fT/	.	4ffT\	.
4E\	.	.	4E/	.	4e/	.	4ee\	.	4e/	-son	.	.	.	4e/	.	4ee\	.
4r	.	.	4r	.	4r	.	4r	.	4r	.	.	.	.	4r	.	4r	.
!LO:LB:g=original	!	!	!	!	!	!	!	!	!	!	!	!	!	!	!	!LO:LB:g=original	!
=43	=43	=43	=43	=43	=43	=43	=43	=43	=43	=43	=43	=43	=43	=43	=43	=43	=43
!	!	!	!	!	!	!LO:DY:rj	!	!LO:DY:rj	!	!	!	!	!	!	!	!LO:TX:a:t=2	!
4.E\	6 3	.	4.e\	p	4.g/	p	4.cc\	p	4.cc\	Ky-	.	1ryy	1ryy	4.cc\	p	0r	.
8BB/	6 3	.	8B/	.	8g/	.	8dd\	.	8dd\	-ri-	.	.	.	8dd\	.	.	.
4C/	5 3	.	4c/	.	4g/	.	4ee\	.	4ee\	-e	.	.	.	4ee\	.	.	.
4C#X/	-7 3	.	4c#X/	.	4b-X 4g/	.	4ee\	.	4ee\	e-	.	.	.	4b-X\	.	.	.
=44	=44	=44	=44	=44	=44	=44	=44	=44	=44	=44	=44	=44	=44	=44	=44	=44	=44
4.D\	-6 4_ 2_	.	2.d/	.	4.b-X 4.g/	.	4.ee\	.	(4.ee\	-lei-	.	1ryy	1ryy	4.b-X\	.	.	.
8D\	n6_ _ _	.	.	.	8bn 8g/	.	8ff\	.	8ff\)	.	.	.	.	8bn\	.	.	.
4D\	.	.	.	.	4b 4g/	.	4ff\	.	4ff\	-son	.	.	.	4b\	.	.	.
4r	x	.	4r	.	4r	.	4r	.	4r	.	.	.	.	4r	.	.	.
=45	=45	=45	=45	=45	=45	=45	=45	=45	=45	=45	=45	=45	=45	=45	=45	=45	=45
!LO:TX:a:i:t=unisono	!	!LO:DY:rj	!	!LO:DY:rj	!	!LO:DY:rj	!	!	!	!	!LO:DY:a:rj	!	!	!	!LO:DY:rj	!	!
4.D\	.	f	4.d/	f	4.dd\	f	4.ddd\	f	4.dd\	Ky-	f	1ryy	1ryy	4.dd\	f	4.ddd\	f
16C#X\LL	.	.	16c#X/LL	.	16cc#X\LL	.	(16ccc#X\LL	.	(16cc#X\LL	-ri-	.	.	.	16cc#X\LL	.	16ccc#X\LL	.
16D\JJ	.	.	16d/JJ	.	16dd\JJ	.	16ddd\JJ)	.	16dd\JJ)	.	.	.	.	16dd\JJ	.	16ddd\JJ	.
4.F\	.	.	4.f/	.	4.ff\	.	4.fff\	.	4.ff\	-e	.	.	.	4.ff\	.	4.fff\	.
16D\LL	.	.	16d/LL	.	16dd\LL	.	16ddd\LL	.	(16dd\LL	e-	.	.	.	16dd\LL	.	16ddd\LL	.
16BB\JJ	.	.	16B/JJ	.	16b\JJ	.	16bb\JJ	.	16b\JJ)	.	.	.	.	16b\JJ	.	16bb\JJ	.
!	!	!	!	!	!	!	!	!	!	!	!	!	!	!LO:LB:g=original	!	!	!
=46	=46	=46	=46	=46	=46	=46	=46	=46	=46	=46	=46	=46	=46	=46	=46	=46	=46
!	!	!	!	!	!	!	!	!	!	!	!	!	!	!	!	!LO:N:vis=4	!
4.GG/	.	.	(4.G/	.	4.g/	.	(4.gg\	.	(4.g\	-lej-	.	1ryy	1ryy	4.g/	.	(4.gg\	.
16BB/LL	.	.	16B/LL	.	16b/LL	.	16bb\LL	.	16b\LL	.	.	.	.	16b/LL	.	16bb\LL	.
16AA/JJ	.	.	16A/JJ)	.	16a/JJ	.	16aa\JJ	.	16a\JJ)	.	.	.	.	16a/JJ	.	16aa\JJ)	.
4GG/	.	.	4G/	.	4g/	.	4gg\)	.	4g\	-son	.	.	.	4g/	.	4gg\	.
4r	.	.	4r	.	4r	.	4r	.	4r	.	.	.	.	4r	.	4r	.
!	!	!	!	!	!LO:LB:g=original	!	!	!	!	!	!	!	!	!	!	!	!
=47	=47	=47	=47	=47	=47	=47	=47	=47	=47	=47	=47	=47	=47	=47	=47	=47	=47
!	!	!LO:DY:rj	!LO:N:n=2:vis=4	!	!	!LO:DY:rj	!	!LO:DY:rj	!	!	!	!	!	!	!LO:DY:rj	!LO:TX:a:t=2	!
4.G 4.GG\	5_ 3_	p	4.g 4.G/	.	4.g 4.B/	p	4.dd\	p	4.dd\	Ky-	.	1ryy	1ryy	4.d/	p	0r	.
8G 8GG\	.	.	8g 8G/	.	8g 8B/	.	8dd\	.	8dd\	-ri-	.	.	.	8d/	.	.	.
4G 4GG\	4 2	.	4g 4G/	.	4g 4A/	.	4cc\	.	4cc\	-e	.	.	.	4c/	.	.	.
4G 4GG\	5 3	.	4g 4G/	.	4g 4B/	.	4dd\	.	4dd\	e-	.	.	.	4d/	.	.	.
=48	=48	=48	=48	=48	=48	=48	=48	=48	=48	=48	=48	=48	=48	=48	=48	=48	=48
!	!	!	!LO:N:n=2:vis=4	!	!	!	!LO:N:v=4	!	!	!	!	!	!	!	!	!	!
4.C/	5 -3	.	4.g 4.G/	.	4.c/	.	4.dd#X\	.	(4.dd#X\	-lei-	.	1ryy	1ryy	4.d#X/	.	.	.
8C/	5_ 3_	.	8g 8G/	.	8c/	.	8ee\	.	8ee\)	.	.	.	.	8e/	.	.	.
4C/	.	.	4g 4G/	.	4c/	.	2ee\	.	4ee\	-son	.	.	.	4e/	.	.	.
4r	x	.	4r	.	4r	.	.	.	4r	.	.	.	.	4r	.	.	.
=49	=49	=49	=49	=49	=49	=49	=49	=49	=49	=49	=49	=49	=49	=49	=49	=49	=49
!	!	!LO:DY:rj	!	!LO:DY:rj	!	!LO:DY:rj	!	!LO:DY:rj	!	!	!LO:DY:a:rj	!	!	!	!LO:DY:rj	!	!
2C/	5_ 3_	f	8r	f	8r	f	4.ee\	f	4.ee\	Ky-	f	1ryy	1ryy	2cc\	f	4.eee\	.
*	*	*	*tremolo	*	*tremolo	*	*	*	*	*	*	*	*	*	*	*	*
.	.	.	8c/L	.	8e 8G/L	.	.	.	.	.	.	.	.	.	.	.	.
.	.	.	8c/	.	8e 8G/	.	.	.	.	.	.	.	.	.	.	.	.
.	.	.	8c/J	.	8e 8G/J	.	8ee\	.	8ee\	-ri-	.	.	.	.	.	8eee\	.
2BB/	.	.	8r	.	8r	.	4ee\	.	4.ee\	-e	.	.	.	2b-X\	.	4eee\	.
.	.	.	8c/L	.	8e 8G/L	.	.	.	.	.	.	.	.	.	.	.	.
.	.	.	8c/	.	8e 8G/	.	(8dd#X\L	.	.	.	.	.	.	.	.	8ddd#X\L	.
.	.	.	8c/J	.	8e 8G/J	.	8ee\J)	.	(16dd#X\LL	e-	.	.	.	.	.	8eee\J	.
.	.	.	.	.	.	.	.	.	16ee\JJ)	.	.	.	.	.	.	.	.
!	!	!	!	!	!	!	!LO:LB:g=original	!	!LO:LB:g=original	!	!	!	!	!	!	!	!
=50	=50	=50	=50	=50	=50	=50	=50	=50	=50	=50	=50	=50	=50	=50	=50	=50	=50
*	*	*	*rep	*	*	*	*	*	*	*	*	*	*	*	*	*	*
2AA/	6 3	.	8r	.	8r	.	4gg\	.	4gg\	-lei-	.	1ryy	1ryy	2a/	.	4ggg\	.
.	.	.	8c/L	.	8f/L	.	.	.	.	.	.	.	.	.	.	.	.
.	.	.	8c/	.	8f/	.	2ff\	.	2ff\	-son	.	.	.	.	.	2fff\	.
.	.	.	8c/J	.	8f/J	.	.	.	.	.	.	.	.	.	.	.	.
2GG/	6 4	.	8r	.	8r	.	.	.	.	.	.	.	.	2g/	.	.	.
.	.	.	8c/L	.	8e/L	.	.	.	.	.	.	.	.	.	.	.	.
.	.	.	8c/	.	8e/	.	4ee\	.	4ee\	e-	.	.	.	.	.	4eee\	.
.	.	.	8c/J	.	8e/J	.	.	.	.	.	.	.	.	.	.	.	.
*	*	*	*Xrep	*	*	*	*	*	*	*	*	*	*	*	*	*	*
=51	=51	=51	=51	=51	=51	=51	=51	=51	=51	=51	=51	=51	=51	=51	=51	=51	=51
2FF/	6 5 3	.	8r	.	8r	.	2dd\	.	(2dd\	-lei-	.	1ryy	1ryy	(2cc\	.	2ddd\	.
.	.	.	8c/L	.	8a 8d/L	.	.	.	.	.	.	.	.	.	.	.	.
.	.	.	8c/	.	8a 8d/	.	.	.	.	.	.	.	.	.	.	.	.
.	.	.	8c/J	.	8a 8d/J	.	.	.	.	.	.	.	.	.	.	.	.
2GG/	7	.	8r	.	8r	.	2gg\	.	2gg\)	.	.	.	.	2b\)	.	2ggg\	.
.	.	.	8f 8G/L	.	8g 8B/L	.	.	.	.	.	.	.	.	.	.	.	.
.	.	.	8f 8G/	.	8g 8B/	.	.	.	.	.	.	.	.	.	.	.	.
.	.	.	8f 8G/J	.	8g 8B/J	.	.	.	.	.	.	.	.	.	.	.	.
*	*	*	*Xtremolo	*	*Xtremolo	*	*	*	*	*	*	*	*	*	*	*	*
=52	=52	=52	=52	=52	=52	=52	=52	=52	=52	=52	=52	=52	=52	=52	=52	=52	=52
4C/	5_ 3_	.	4c/	.	4e 4G/	.	4ee\	.	4cc\	-son	.	1ryy	1ryy	4cc\	.	4eee\	.
4r	.	.	4r	.	4r	.	4r	.	4r	.	.	.	.	4r	.	4r	.
4C/	.	.	4c 4C/	.	4.c/	.	4e 4G/	.	2r	.	.	.	.	4e/	.	2r	.
4C/	.	.	4c 4C/	.	.	.	4e 4G/	.	.	.	.	.	.	4e/	.	.	.
.	.	.	.	.	8c/	.	.	.	.	.	.	.	.	.	.	.	.
=53	=53	=53	=53	=53	=53	=53	=53	=53	=53	=53	=53	=53	=53	=53	=53	=53	=53
!	!	!	!	!	!	!	!	!	!LO:TX:a:t=1	!	!	!	!	!	!	!LO:TX:a:t=1.	!
2C/	.	.	2c 2C/	.	2c/	.	2e 2G/	.	1r	.	.	1ryy	1ryy	2e/	.	1r	.
2r	x	.	2r	.	2r	.	2r	.	.	.	.	.	.	2r	.	.	.
==	==	==	==	==	==	==	==	==	==	==	==	==	==	==	==	==	==
*-	*-	*-	*-	*-	*-	*-	*-	*-	*-	*-	*-	*-	*-	*-	*-	*-	*-
!!!system-decoration: [(g1)][(g2)]<s5>[(g3)]<s9>
!!!RDF**kern: < = below
!!!RDF**kern: | = vertical stroke
!!!ENC: Marcin Jachim
!!!END: 2020-10-07
!!!ENC: Andrzej Kubiczek
!!!END: 2022-02-03
!!!YEC: Copyright 2022 Narodowy Instytut Fryderyka Chopina (https://polishscores.org)
!!!YEM: Licence CC BY 4.0 (https://creativecommons.org/licenses/by/4.0)
